icons/guarantees-6.svg

<svg width="86" height="86" viewBox="0 0 86 86" fill="none" xmlns="http://www.w3.org/2000/svg">
<path opacity="0.5" d="M48.7694 73.005L46.8498 76.2492C45.1392 79.1392 40.8644 79.1392 39.1502 76.2492L37.2306 73.005C35.7431 70.4904 34.9994 69.2296 33.8023 68.5354C32.6052 67.8377 31.1 67.8129 28.0896 67.7598C23.6412 67.6854 20.854 67.4127 18.5165 66.4423C16.368 65.5524 14.4158 64.248 12.7714 62.6036C11.127 60.9592 9.82263 59.007 8.9327 56.8585C7.58333 53.6073 7.58333 49.4812 7.58333 41.2292V37.6875C7.58333 26.0956 7.58333 20.2979 10.1935 16.0408C11.6529 13.658 13.6553 11.6543 16.0373 10.1935C20.2979 7.58333 26.0992 7.58333 37.6875 7.58333H48.3125C59.9044 7.58333 65.7021 7.58333 69.9627 10.1935C72.3443 11.6533 74.3467 13.6557 75.8065 16.0373C78.4167 20.2979 78.4167 26.0992 78.4167 37.6875V41.2292C78.4167 49.4812 78.4167 53.6073 77.0708 56.8585C76.1805 59.0074 74.8756 60.9597 73.2305 62.6041C71.5855 64.2485 69.6327 65.5527 67.4835 66.4423C65.146 67.4127 62.3587 67.6819 57.9104 67.7598C54.9 67.8129 53.3948 67.8377 52.1977 68.5354C51.0006 69.2296 50.2569 70.4869 48.7694 73.005Z" fill="#141414"/>
<path d="M26.1771 32.375C26.1771 31.6705 26.4569 30.9949 26.9551 30.4967C27.4532 29.9986 28.1288 29.7188 28.8333 29.7188H57.1667C57.8711 29.7188 58.5468 29.9986 59.0449 30.4967C59.5431 30.9949 59.8229 31.6705 59.8229 32.375C59.8229 33.0795 59.5431 33.7551 59.0449 34.2533C58.5468 34.7514 57.8711 35.0312 57.1667 35.0312H28.8333C28.1288 35.0312 27.4532 34.7514 26.9551 34.2533C26.4569 33.7551 26.1771 33.0795 26.1771 32.375ZM26.1771 44.7708C26.1771 44.0664 26.4569 43.3907 26.9551 42.8926C27.4532 42.3944 28.1288 42.1146 28.8333 42.1146H48.3125C49.017 42.1146 49.6926 42.3944 50.1907 42.8926C50.6889 43.3907 50.9687 44.0664 50.9687 44.7708C50.9687 45.4753 50.6889 46.1509 50.1907 46.6491C49.6926 47.1472 49.017 47.4271 48.3125 47.4271H28.8333C28.1288 47.4271 27.4532 47.1472 26.9551 46.6491C26.4569 46.1509 26.1771 45.4753 26.1771 44.7708Z" fill="#141414"/>
</svg>

<svg xmlns="http://www.w3.org/2000/svg" width="86" height="86" fill="none"><path fill="#141414" d="m48.77 73.005-1.92 3.244c-1.71 2.89-5.986 2.89-7.7 0l-1.92-3.244c-1.487-2.515-2.23-3.775-3.428-4.47-1.197-.697-2.702-.722-5.712-.775-4.449-.075-7.236-.347-9.573-1.318a17.7 17.7 0 0 1-9.584-9.583c-1.35-3.252-1.35-7.378-1.35-15.63v-3.541c0-11.592 0-17.39 2.61-21.647a17.7 17.7 0 0 1 5.844-5.847c4.26-2.61 10.062-2.61 21.65-2.61h10.626c11.591 0 17.39 0 21.65 2.61a17.7 17.7 0 0 1 5.844 5.843c2.61 4.26 2.61 10.062 2.61 21.65v3.542c0 8.252 0 12.378-1.346 15.63a17.7 17.7 0 0 1-9.587 9.583c-2.338.97-5.125 1.24-9.574 1.318-3.01.053-4.515.078-5.712.775-1.197.695-1.941 1.952-3.429 4.47" opacity=".5"/><path fill="#141414" d="M26.177 32.375a2.656 2.656 0 0 1 2.656-2.656h28.334a2.656 2.656 0 1 1 0 5.312H28.833a2.656 2.656 0 0 1-2.656-2.656m0 12.396a2.656 2.656 0 0 1 2.656-2.656h19.48a2.656 2.656 0 1 1 0 5.312h-19.48a2.656 2.656 0 0 1-2.656-2.656"/></svg>
